optimized/24/outline/text-field-alt.svg

<svg viewBox="0 0 24 24" fill="none" xmlns="http://www.w3.org/2000/svg">
  <g clip-path="url(#clip0_4645_8)">
    <path fill-rule="evenodd" clip-rule="evenodd" d="M7.7679 2.25H16.2321C17.0449 2.24999 17.7006 2.24999 18.2315 2.29336C18.7781 2.33803 19.2582 2.43239 19.7025 2.65873C20.4081 3.01825 20.9817 3.59193 21.3413 4.29754C21.5676 4.74175 21.662 5.2219 21.7066 5.76853C21.75 6.29944 21.75 6.95505 21.75 7.76788V16.2321C21.75 17.045 21.75 17.7006 21.7066 18.2315C21.662 18.7781 21.5676 19.2582 21.3413 19.7025C20.9817 20.4081 20.4081 20.9817 19.7025 21.3413C19.2582 21.5676 18.7781 21.662 18.2315 21.7066C17.7006 21.75 17.045 21.75 16.2321 21.75H7.76788C6.95505 21.75 6.29944 21.75 5.76853 21.7066C5.2219 21.662 4.74175 21.5676 4.29754 21.3413C3.59193 20.9817 3.01825 20.4081 2.65873 19.7025C2.43239 19.2582 2.33803 18.7781 2.29336 18.2315C2.24999 17.7006 2.24999 17.0449 2.25 16.2321V7.7679C2.24999 6.95506 2.24999 6.29944 2.29336 5.76853C2.33803 5.2219 2.43239 4.74175 2.65873 4.29754C3.01825 3.59193 3.59193 3.01825 4.29754 2.65873C4.74175 2.43239 5.2219 2.33803 5.76853 2.29336C6.29944 2.24999 6.95506 2.24999 7.7679 2.25ZM5.89068 3.78838C5.4368 3.82547 5.17604 3.8946 4.97852 3.99524C4.55516 4.21095 4.21095 4.55516 3.99524 4.97852C3.8946 5.17604 3.82547 5.4368 3.78838 5.89068C3.75058 6.35331 3.75 6.94755 3.75 7.8V16.2C3.75 17.0525 3.75058 17.6467 3.78838 18.1093C3.82547 18.5632 3.8946 18.824 3.99524 19.0215C4.21095 19.4448 4.55516 19.789 4.97852 20.0048C5.17604 20.1054 5.4368 20.1745 5.89068 20.2116C6.35331 20.2494 6.94755 20.25 7.8 20.25H16.2C17.0525 20.25 17.6467 20.2494 18.1093 20.2116C18.5632 20.1745 18.824 20.1054 19.0215 20.0048C19.4448 19.789 19.789 19.4448 20.0048 19.0215C20.1054 18.824 20.1745 18.5632 20.2116 18.1093C20.2494 17.6467 20.25 17.0525 20.25 16.2V7.8C20.25 6.94755 20.2494 6.35331 20.2116 5.89068C20.1745 5.4368 20.1054 5.17604 20.0048 4.97852C19.789 4.55516 19.4448 4.21095 19.0215 3.99524C18.824 3.8946 18.5632 3.82547 18.1093 3.78838C17.6467 3.75058 17.0525 3.75 16.2 3.75H7.8C6.94755 3.75 6.35331 3.75058 5.89068 3.78838ZM7.25 7C7.25 6.58579 7.58579 6.25 8 6.25H16C16.4142 6.25 16.75 6.58579 16.75 7C16.75 7.41421 16.4142 7.75 16 7.75H12.75V17C12.75 17.4142 12.4142 17.75 12 17.75C11.5858 17.75 11.25 17.4142 11.25 17V7.75H8C7.58579 7.75 7.25 7.41421 7.25 7Z" fill="#333333"/>
  </g>
  <defs>
    <clipPath id="clip0_4645_8">
      <rect width="24" height="24" fill="white"/>
    </clipPath>
  </defs>
</svg>

<svg xmlns="http://www.w3.org/2000/svg" width="24" height="24" fill="none">
  <g clip-path="url(#a)">
    <path fill="#333" fill-rule="evenodd" d="M7.768 2.25h8.464c.813 0 1.469 0 2 .043.546.045 1.026.14 1.47.366a3.75 3.75 0 0 1 1.64 1.639c.226.444.32.924.365 1.47.043.531.043 1.187.043 2v8.464c0 .813 0 1.469-.043 2-.045.546-.14 1.026-.366 1.47a3.75 3.75 0 0 1-1.639 1.64c-.444.226-.924.32-1.47.365-.531.043-1.187.043-2 .043H7.768c-.813 0-1.469 0-2-.043-.546-.045-1.026-.14-1.47-.366a3.75 3.75 0 0 1-1.64-1.639c-.226-.444-.32-.924-.365-1.47-.043-.531-.043-1.187-.043-2V7.768c0-.813 0-1.469.043-2 .045-.546.14-1.026.366-1.47a3.75 3.75 0 0 1 1.639-1.64c.444-.226.924-.32 1.47-.365.531-.043 1.187-.043 2-.043ZM5.89 3.788c-.454.037-.715.107-.912.207a2.25 2.25 0 0 0-.984.984c-.1.197-.17.458-.207.912-.037.462-.038 1.057-.038 1.909v8.4c0 .852 0 1.447.038 1.91.037.453.107.714.207.912.216.423.56.767.984.983.197.1.458.17.912.207.462.037 1.057.038 1.909.038h8.4c.852 0 1.447 0 1.91-.038.453-.038.714-.107.912-.207.423-.216.767-.56.983-.983.1-.198.17-.459.207-.913.037-.462.038-1.057.038-1.909V7.8c0-.852 0-1.447-.038-1.91-.038-.453-.107-.714-.207-.911a2.25 2.25 0 0 0-.983-.984c-.198-.1-.459-.17-.913-.207-.462-.037-1.057-.038-1.909-.038H7.8c-.852 0-1.447 0-1.91.038ZM7.25 7A.75.75 0 0 1 8 6.25h8a.75.75 0 0 1 0 1.5h-3.25V17a.75.75 0 0 1-1.5 0V7.75H8A.75.75 0 0 1 7.25 7Z" clip-rule="evenodd"/>
  </g>
  <defs>
    <clipPath id="a">
      <path fill="#fff" d="M0 0h24v24H0z"/>
    </clipPath>
  </defs>
</svg>
